X: 3345
T: Bellingham Boat
R: jig
M: 6/8
K: Gmajor
d2 d cAF|A>GF G2 B|dcc cBB|BAA A2 B/c/|
d2 d cAF|G>AF G2 c|B<dB cAF|G3- G2:|
d2 d def|g2 g gfe|dbb caa|Bgg AA/B/c|
d2 d def|g3- g2 f/e/|a>fd g>e^c|1 d3- d2:|2 de^c d2||

